X:479
T:Watson's Blues
C:Bill Monroe and David Grisman
N:Transcribed by Mike Stangeland
R:bluegrass
L:1/8
Q:1/4=130
M:4/4
K:E
z8 | z8 | {=d}(3"Bill Monroe solo""E"e/e/e/(3e/e/e/ (3e/e/e/(3e/e/e/ ez BB | {c}(3"D"=d/d/d/(3d/d/d/ (3d/d/d/B d^d ee | 
(3"E"B/B/B/(3B/B/B/ (3B/B/B/(3B/B/B/ B=G EE | "A7"(3A/A/A/(3A/A/A/ (3A/A/A/(3A/A/A/ AE EE | 
"E"(3[B/G/][B/G/][B/G/](3[B/G/][B/G/][B/G/] (3[B/G/][B/G/][B/G/](3[B/G/][B/G/][B/G/] [BG]F [BE]=D | 
(3E/E/E/(3E/E/E/ (3E/E/E/E E2 EE | "B7"(3[D/B,/][D/B,/][D/B,/](3[D/B,/][D/B,/][D/B,/] (3[D/B,/][D/B,/][D/B,/](3[D/B,/][D/B,/][D/B,/] (3[D/B,/][D/B,/][D/B,/][DB,] [DB,][DB,] | 
[D2B,2] [DB,]=G, (3[D/B,/][D/B,/][D/B,/](3[D/B,/][D/B,/][D/B,/] EE | {d}(3"E"e/e/e/(3e/e/e/ (3e/e/e/(3e/e/e/ (3e/e/e/e eB | 
(3"D"=d/d/d/(3d/d/d/ (3d/d/d/B d^d ee | (3"E"B/B/B/(3B/B/B/ (3B/B/B/B [B=G]E EF | 
(3"A7"[c/A/][c/A/][c/A/](3[c/A/][c/A/][c/A/] [c2A2] [cA][A=D] [A2E2] | "E"[BG][eB] [BE][BE] [BG][eB] [BE][BE] | 
"B7/F#"B,2 B,B, {=G}^GB {=G}^GB | "E"(3[E/B,/][E/B,/][E/B,/](3[E/B,/][E/B,/][E/B,/] (3[E/B,/][E/B,/][E/B,/](3[E/B,/][E/B,/][E/B,/] (3[E/B,/][E/B,/][E/B,/](3[E/B,/][E/B,/][E/B,/] [EB,][EB,] | 
"E7"[=d2E2B,2] [dEB,][dEB,] [dEB,][EB,] [EB,][EB,] | {=G}(3"A7"A/A/A/(3A/A/A/ (3A/A/A/(3A/A/A/ (3A/A/A/(3A/A/A/ (3A/A/A/(3A/A/A/ | 
{=c}^ce ee =gf ec | "E"BB =GF EE E=D | [E2B,2] [E2B,2] [E2B,2] BB | {d}ee/e/ ee e=g e=d | 
BA =GE B,2 E=D | (3"B7"[e/B/][e/B/][e/B/](3[e/B/][e/B/][e/B/] (3[e/B/][e/B/][e/B/](3[e/B/][e/B/][e/B/] (3[e/B/][e/B/][e/B/](3[e/B/][e/B/][e/B/] (3[e/B/][e/B/][e/B/](3[e/B/][e/B/][e/B/] | 
[e4B4] zB =dB | "E"(3e/e/e/(3e/e/e/ (3e/e/e/e eB eB | "D"{c}(3=d/d/d/(3d/d/d/ dB d{^d}e [ee]e | 
(3B/B/B/(3B/B/B/ (3B/B/B/B B=G EF | "A"{=G}A[cA] [cA][cA] z2 EE | "E"(3[B/G/][B/G/][B/G/](3[B/G/][B/G/][B/G/] [BG][B2G2]G EC | 
"B7/F#"(3B,/B,/B,/(3B,/B,/B,/ A,=G, ^G,A, B,=D | "E"(3[E/B,/][E/B,/][E/B,/](3[E/B,/][E/B,/][E/B,/] (3[E/B,/][E/B,/][E/B,/](3[E/B,/][E/B,/][E/B,/] (3[E/B,/][E/B,/][E/B,/](3[E/B,/][E/B,/][E/B,/] (3[E/B,/][E/B,/][E/B,/](3[E/B,/][E/B,/][E/B,/] | 
[E4B,4] zB =dB | {=d}(3"David Grisman so""E"e/e/e/(3e/e/e/ (3e/e/e/(3e/e/e/ (3e/e/e/ Bd | 
(3"D"=d/d/d/(3d/d/d/ (3d/d/d/(3d/d/d/ dB de | "E"B3B GF EA | "A7"(3A/A/A/(3A/A/A/ (3A/A/A/(3A/A/A/ B,C EE | 
"E"GB BB z2 GE | E3E (3B,CE GB | "B7"[BF][BF] [BF][BF] [B2F2] {A}(3Bdf | b8 | 
(3"E"e/e/e/(3e/e/e/ (3e/e/e/(3e/e/e/ eB e=d | (3"D"=d/d/d/(3d/d/d/ (3d/d/d/(3d/d/d/ dB de | 
"E"B3B G2 EA | (3"A7"A/A/A/(3A/A/A/ (3A/A/A/A B,C EE | "E"[B4G4] G2 EB, | "B7/F#"(3B,/B,/B,/(3B,/B,/B,/ (3B,/B,/B,/B, B,^A, =A,G, | 
(3"E"E/E/E/(3E/E/E/ (3E/E/E/(3E/E/E/ (3E/E/E/E (3E=FE | "E7"=D7/1A | {B}"A7"ce z3c e2 | 
{f}=g2 {f}g2 (3fgf e2 | "E"{=d}(3e/e/e/(3e/e/e/ (3e/e/e/(3e/e/e/ eB GE | (3E/E/E/(3E/E/E/ (3E/E/E/(3E/E/E/ E2 ee | 
ee' c'b gf ec | B3B (3Bce eB | (3"B7"[b/f/][b/f/][b/f/](3[b/f/][b/f/][b/f/] (3[b/f/][b/f/][b/f/](3[b/f/][b/f/][b/f/] (3[b/f/][b/f/][b/f/]f {=d}(3^dB{=d}^d | 
B8 | "E"(3e/e/e/(3e/e/e/ (3e/e/e/(3e/e/e/ eB e=d | "D"(3=d/d/d/(3d/d/d/ (3d/d/d/(3d/d/d/ dB de | 
"E"B2 BB GF EA | "A"(3A/A/A/(3A/A/A/ (3A/A/A/(3A/A/A/ B,C EE | "E"(3[B/G/]B/B/(3B/B/B/ (3B/B/B/(3B/B/B/ "C7/G"B3/2G3/2E | 
"B7/F#"(3B,/B,/B,/(3B,/B,/B,/ (3B,/B,/B,/(3B,/B,/B,/ B,3/2A,3/2G, | "E"(3E/E/E/(3E/E/E/ (3E/E/E/(3E/E/E/ (3E/E/E/(3E/E/E/ (3E/E/E/(3E/E/E/ | 
e''8 | 


